; generated by PrusaSlicer 2.6.0+MacOS-arm64 on 2024-02-18 at 07:55:03 UTC


;
;
; 

; external perimeters extrusion width = 0.60mm
; perimeters extrusion width = 0.50mm
; infill extrusion width = 0.50mm
; solid infill extrusion width = 0.50mm
; top infill extrusion width = 0.45mm
; first layer extrusion width = 0.42mm

M73 P0 R33
M73 Q0 S33
M201 X1000 Y1000 Z200 E5000 ; sets maximum accelerations, mm/sec^2
M203 X200 Y200 Z12 E120 ; sets maximum feedrates, mm / sec
M204 S1250 T1250 ; sets acceleration (S) and retract acceleration (R), mm/sec^2
M205 X8.00 Y8.00 Z0.40 E4.50 ; sets the jerk limits, mm/sec
M205 S0 T0 ; sets the minimum extruding and travel feed rate, mm/sec
;TYPE:Custom
M862.3 P "MK3" ; printer model check
M862.1 P0.4 ; nozzle diameter check
M115 U3.12.2 ; tell printer latest fw version
G90 ; use absolute coordinates
M83 ; extruder relative mode
M104 S215 ; set extruder temp
M140 S60 ; set bed temp
M190 S60 ; wait for bed temp
M109 S215 ; wait for extruder temp
G28 W ; home all without mesh bed level
G80 ; mesh bed leveling

G1 Z0.2 F720
G1 Y-3 F1000 ; go outside print area
G92 E0
G1 X60 E9 F1000 ; intro line
G1 X100 E12.5 F1000 ; intro line

G92 E0
M221 S95

; Don't change E values below. Excessive value can damage the printer.

M907 E538 ; set extruder motor current
G21 ; set units to millimeters
G90 ; use absolute coordinates
M83 ; use relative distances for extrusion
M900 K0.05 ; Filament gcode LA 1.5
M900 K30 ; Filament gcode LA 1.0
M107
;LAYER_CHANGE
;Z:0.2
;HEIGHT:0.2
;BEFORE_LAYER_CHANGE
G92 E0.0
;0.2


G1 E-.8 F2100
G1 Z.4 F720
;AFTER_LAYER_CHANGE
;0.2
G1 X83.268 Y85.837 F10800
G1 Z.2 F720
G1 E.8 F2100
M204 S800
;TYPE:Skirt/Brim
;WIDTH:0.42
G1 F1200
G1 X83.96 Y85.407 E.02554
G1 X84.74 Y85.17 E.02556
G1 X85.249 Y85.123 E.01603
G1 X165.06 Y85.143 E2.50242
G1 X166.033 Y85.404 E.03159
G1 X166.724 Y85.831 E.02547
G1 X167.166 Y86.273 E.0196
G1 X167.671 Y87.146 E.03162
G1 X167.876 Y88.185 E.03321
G1 X168.626 Y115.685 E.86256
G1 X168.627 Y121 E.16665
G1 X168.556 Y121.698 E.022
G1 X168.395 Y122.298 E.01948
G1 X167.935 Y123.197 E.03166
G1 X167.258 Y123.947 E.03168
G1 X166.41 Y124.495 E.03166
G1 X165.449 Y124.806 E.03167
G1 X164.75 Y124.877 E.02203
G1 X85.25 Y124.877 E2.49267
G1 X84.551 Y124.806 E.02203
G1 X83.952 Y124.645 E.01945
G1 X83.053 Y124.185 E.03166
G1 X82.308 Y123.513 E.03146
G1 X81.758 Y122.666 E.03166
G1 X81.446 Y121.705 E.03168
G1 X81.373 Y121.003 E.02213
G1 X81.373 Y115.5 E.17254
G1 X82.124 Y88.185 E.85677
G1 X82.328 Y87.151 E.03305
G1 X82.712 Y86.433 E.02553
G1 X83.227 Y85.881 E.02367
M204 S1000
; printing object cover mesh.stl id:0 copy 0
;WIPE_START
G1 F8640
G1 X83.96 Y85.407 E-.20156
G1 X84.74 Y85.17 E-.18823
G1 X85.249 Y85.123 E-.11803
G1 X86.514 Y85.123 E-.29218
;WIPE_END
G1 Z.6 F720
G1 X85.494 Y88.494 F10800
G1 Z.2 F720
G1 E.8 F2100
M204 S800
;TYPE:Perimeter
;WIDTH:0.419999
G1 F1200
G1 X164.506 Y88.506 E2.47736
G1 X164.51 Y115.925 E.8597
M73 P1 R33
M73 Q1 S33
G1 X164.563 Y116.164 E.00768
G1 X164.732 Y116.375 E.00848
G1 X165.077 Y116.491 E.01141
G1 X165.26 Y116.491 E.00574
G1 X165.256 Y120.948 E.13975
G1 X165.182 Y121.25 E.00975
G1 X165 Y121.432 E.00807
G1 X164.698 Y121.506 E.00975
G1 X160.243 Y121.51 E.13968
G1 X160.241 Y121.321 E.00593
G1 X160.124 Y120.981 E.01127
G1 X159.914 Y120.813 E.00843
G1 X159.676 Y120.76 E.00765
G1 X90.325 Y120.76 E2.17445
G1 X90.086 Y120.813 E.00768
M73 P1 R32
G1 X89.875 Y120.982 E.00848
G1 X89.759 Y121.327 E.01141
G1 X89.759 Y121.51 E.00574
G1 X85.302 Y121.506 E.13975
G1 X85 Y121.432 E.00975
G1 X84.818 Y121.25 E.00807
G1 X84.744 Y120.948 E.00975
G1 X84.741 Y116.49 E.13978
G1 X84.924 Y116.49 E.00574
G1 X85.269 Y116.373 E.01142
G1 X85.437 Y116.163 E.00843
G1 X85.49 Y115.925 E.00765
G1 X85.494 Y88.554 E.8582
M204 S1000
G1 X85.282 Y88.117 F10800
M204 S800
;TYPE:External perimeter
G1 F1200
G1 X164.686 Y88.129 E2.48965
G1 X164.849 Y88.187 E.00542
G1 X164.883 Y88.296 E.00358
G1 X164.887 Y115.925 E.86629
G1 X164.924 Y116.037 E.0037
G1 X165.076 Y116.114 E.00534
G1 X165.637 Y116.113 E.01759
G1 X165.633 Y120.973 E.15238
G1 X165.556 Y121.334 E.01157
G1 X165.372 Y121.622 E.01072
G1 X165.084 Y121.806 E.01072
G1 X164.723 Y121.883 E.01157
G1 X159.869 Y121.887 E.15219
G1 X159.864 Y121.324 E.01765
G1 X159.825 Y121.211 E.00375
G1 X159.676 Y121.137 E.00522
G1 X90.325 Y121.137 E2.17445
G1 X90.213 Y121.173 E.00369
M73 P2 R32
M73 Q2 S33
G1 X90.136 Y121.326 E.00537
G1 X90.137 Y121.887 E.01759
G1 X85.277 Y121.883 E.15238
G1 X84.916 Y121.806 E.01157
G1 X84.628 Y121.622 E.01072
G1 X84.444 Y121.334 E.01072
G1 X84.367 Y120.973 E.01157
G1 X84.363 Y116.113 E.15238
G1 X84.924 Y116.113 E.01759
G1 X85.039 Y116.074 E.00381
G1 X85.113 Y115.925 E.00522
G1 X85.117 Y88.328 E.86528
G1 X85.154 Y88.178 E.00484
G1 X85.228 Y88.143 E.00257
M204 S1000
G1 X85.576 Y88.388 F10800
;WIPE_START
G1 F8640
G1 X88.693 Y88.142 E-.8
;WIPE_END
G1 Z.6 F720
G1 X164.393 Y89.382 F10800
G1 Z.2 F720
G1 E.8 F2100
M204 S800
;TYPE:Solid infill
;WIDTH:0.420437
G1 F1200
G1 X163.799 Y88.789 E.02635
G1 X163.265 Y88.788 E.01676
G1 X164.223 Y89.747 E.04255
G1 X164.223 Y90.28 E.01673
G1 X162.731 Y88.788 E.06623
G1 X162.197 Y88.788 E.01676
G1 X164.224 Y90.814 E.08996
G1 X164.224 Y91.348 E.01676
G1 X161.663 Y88.788 E.11367
G1 X161.129 Y88.788 E.01676
G1 X164.224 Y91.882 E.13737
G1 X164.224 Y92.416 E.01676
G1 X160.595 Y88.788 E.16108
G1 X160.061 Y88.788 E.01676
G1 X164.224 Y92.95 E.18479
G1 X164.224 Y93.484 E.01676
G1 X159.528 Y88.788 E.20847
G1 X158.994 Y88.788 E.01676
G1 X164.224 Y94.018 E.23218
G1 X164.224 Y94.552 E.01676
G1 X158.46 Y88.788 E.25588
G1 X157.926 Y88.788 E.01676
G1 X164.224 Y95.086 E.27959
G1 X164.224 Y95.62 E.01676
G1 X157.392 Y88.788 E.30329
G1 X156.858 Y88.788 E.01676
G1 X164.224 Y96.154 E.327
G1 X164.224 Y96.688 E.01676
M73 Q2 S32
G1 X156.324 Y88.787 E.35073
G1 X155.79 Y88.787 E.01676
G1 X164.224 Y97.222 E.37443
G1 X164.225 Y97.756 E.01676
G1 X155.256 Y88.787 E.39816
G1 X154.722 Y88.787 E.01676
G1 X164.225 Y98.29 E.42187
G1 X164.225 Y98.824 E.01676
G1 X154.188 Y88.787 E.44557
G1 X153.654 Y88.787 E.01676
G1 X164.225 Y99.358 E.46928
G1 X164.225 Y99.892 E.01676
G1 X153.12 Y88.787 E.49299
G1 X152.586 Y88.787 E.01676
G1 X164.225 Y100.426 E.51669
G1 X164.225 Y100.96 E.01676
G1 X152.052 Y88.787 E.5404
G1 X151.518 Y88.787 E.01676
G1 X164.225 Y101.494 E.5641
G1 X164.225 Y102.028 E.01676
G1 X150.984 Y88.787 E.58781
G1 X150.45 Y88.787 E.01676
G1 X164.225 Y102.562 E.61152
G1 X164.225 Y103.096 E.01676
G1 X149.916 Y88.786 E.63524
G1 X149.382 Y88.786 E.01676
G1 X164.225 Y103.63 E.65895
G1 X164.225 Y104.164 E.01676
G1 X148.848 Y88.786 E.68266
G1 X148.314 Y88.786 E.01676
M73 P3 R32
M73 Q3 S32
G1 X164.225 Y104.698 E.70636
G1 X164.226 Y105.232 E.01676
G1 X147.78 Y88.786 E.73009
G1 X147.246 Y88.786 E.01676
G1 X164.226 Y105.766 E.7538
G1 X164.226 Y106.299 E.01673
G1 X146.712 Y88.786 E.77748
G1 X146.178 Y88.786 E.01676
G1 X164.226 Y106.833 E.80118
G1 X164.226 Y107.367 E.01676
G1 X145.644 Y88.786 E.82489
G1 X145.11 Y88.786 E.01676
G1 X164.226 Y107.901 E.8486
G1 X164.226 Y108.435 E.01676
G1 X144.576 Y88.786 E.8723
G1 X144.042 Y88.786 E.01676
G1 X164.226 Y108.969 E.89601
G1 X164.226 Y109.503 E.01676
G1 X143.508 Y88.786 E.91971
G1 X142.974 Y88.785 E.01676
G1 X164.226 Y110.037 E.94344
G1 X164.226 Y110.571 E.01676
G1 X142.441 Y88.785 E.96713
G1 X141.907 Y88.785 E.01676
G1 X164.226 Y111.105 E.99083
G1 X164.226 Y111.639 E.01676
G1 X141.373 Y88.785 E1.01454
G1 X140.839 Y88.785 E.01676
M73 P4 R32
M73 Q4 S32
G1 X164.227 Y112.173 E1.03827
G1 X164.227 Y112.707 E.01676
G1 X140.305 Y88.785 E1.06197
G1 X139.771 Y88.785 E.01676
G1 X164.227 Y113.241 E1.08568
G1 X164.227 Y113.775 E.01676
G1 X139.237 Y88.785 E1.10938
G1 X138.703 Y88.785 E.01676
M73 P4 R31
G1 X164.227 Y114.309 E1.13309
G1 X164.227 Y114.843 E.01676
G1 X138.169 Y88.785 E1.1568
G1 X137.635 Y88.785 E.01676
G1 X164.227 Y115.377 E1.1805
G1 X164.227 Y115.911 E.01676
G1 X137.101 Y88.785 E1.20421
G1 X136.567 Y88.785 E.01676
G1 X164.976 Y117.194 E1.26116
G1 X164.976 Y117.727 E.01673
G1 X136.033 Y88.784 E1.28487
G1 X135.499 Y88.784 E.01676
G1 X164.975 Y118.261 E1.30855
G1 X164.975 Y118.794 E.01673
M73 P5 R31
M73 Q5 S32
G1 X134.965 Y88.784 E1.33224
G1 X134.431 Y88.784 E.01676
G1 X164.975 Y119.328 E1.35594
G1 X164.974 Y119.861 E.01673
G1 X133.897 Y88.784 E1.3796
G1 X133.363 Y88.784 E.01676
M73 Q5 S31
G1 X164.974 Y120.395 E1.40331
G1 X164.973 Y120.928 E.01673
G1 X132.829 Y88.784 E1.42697
G1 X132.295 Y88.784 E.01676
G1 X164.728 Y121.217 E1.4398
G1 X164.201 Y121.223 E.01654
G1 X131.761 Y88.784 E1.44009
G1 X131.227 Y88.784 E.01676
G1 X163.667 Y121.224 E1.44011
G1 X163.133 Y121.224 E.01676
G1 X130.693 Y88.784 E1.44011
G1 X130.159 Y88.784 E.01676
M73 P6 R31
M73 Q6 S31
G1 X162.6 Y121.224 E1.44013
G1 X162.066 Y121.224 E.01676
G1 X129.625 Y88.783 E1.44016
G1 X129.091 Y88.783 E.01676
G1 X161.532 Y121.224 E1.44016
G1 X160.999 Y121.225 E.01673
G1 X128.557 Y88.783 E1.4402
G1 X128.023 Y88.783 E.01676
G1 X159.723 Y120.482 E1.40724
G1 X159.183 Y120.477 E.01695
G1 X127.489 Y88.783 E1.407
G1 X126.955 Y88.783 E.01676
G1 X158.649 Y120.477 E1.407
G1 X158.116 Y120.477 E.01673
G1 X126.421 Y88.783 E1.40702
G1 X125.887 Y88.783 E.01676
M73 P7 R31
G1 X157.582 Y120.477 E1.40702
G1 X157.048 Y120.477 E.01676
M73 Q7 S31
G1 X125.353 Y88.783 E1.40702
G1 X124.82 Y88.783 E.01673
G1 X156.514 Y120.477 E1.407
G1 X155.98 Y120.477 E.01676
M73 P7 R30
G1 X124.286 Y88.783 E1.407
G1 X123.752 Y88.783 E.01676
G1 X155.446 Y120.477 E1.407
G1 X154.912 Y120.477 E.01676
G1 X123.218 Y88.783 E1.407
G1 X122.684 Y88.782 E.01676
G1 X154.378 Y120.477 E1.40702
G1 X153.844 Y120.477 E.01676
G1 X122.15 Y88.782 E1.40702
G1 X121.616 Y88.782 E.01676
G1 X153.311 Y120.477 E1.40704
G1 X152.777 Y120.477 E.01676
M73 P8 R30
G1 X121.082 Y88.782 E1.40704
G1 X120.548 Y88.782 E.01676
M73 Q8 S31
G1 X152.243 Y120.477 E1.40704
G1 X151.709 Y120.477 E.01676
G1 X120.014 Y88.782 E1.40704
G1 X119.48 Y88.782 E.01676
M73 Q8 S30
G1 X151.175 Y120.477 E1.40704
G1 X150.641 Y120.477 E.01676
G1 X118.946 Y88.782 E1.40704
G1 X118.412 Y88.782 E.01676
G1 X150.107 Y120.477 E1.40704
G1 X149.573 Y120.477 E.01676
G1 X117.878 Y88.782 E1.40704
G1 X117.344 Y88.782 E.01676
G1 X149.039 Y120.477 E1.40704
G1 X148.506 Y120.477 E.01673
G1 X116.81 Y88.782 E1.40706
G1 X116.276 Y88.781 E.01676
M73 P9 R30
G1 X147.972 Y120.477 E1.40708
G1 X147.438 Y120.477 E.01676
M73 Q9 S30
G1 X115.742 Y88.781 E1.40708
G1 X115.208 Y88.781 E.01676
G1 X146.904 Y120.477 E1.40708
G1 X146.37 Y120.477 E.01676
G1 X114.674 Y88.781 E1.40708
G1 X114.14 Y88.781 E.01676
G1 X145.836 Y120.477 E1.40708
G1 X145.302 Y120.477 E.01676
G1 X113.606 Y88.781 E1.40708
G1 X113.072 Y88.781 E.01676
G1 X144.768 Y120.477 E1.40708
G1 X144.234 Y120.477 E.01676
G1 X112.538 Y88.781 E1.40708
G1 X112.004 Y88.781 E.01676
G1 X143.701 Y120.477 E1.40711
G1 X143.167 Y120.477 E.01676
M73 P10 R30
M73 Q10 S30
G1 X111.47 Y88.781 E1.40711
G1 X110.936 Y88.781 E.01676
G1 X142.633 Y120.477 E1.40711
G1 X142.099 Y120.477 E.01676
M73 P10 R29
G1 X110.402 Y88.781 E1.40711
G1 X109.868 Y88.781 E.01676
G1 X141.565 Y120.477 E1.40711
G1 X141.031 Y120.477 E.01676
G1 X109.334 Y88.78 E1.40713
G1 X108.8 Y88.78 E.01676
G1 X140.497 Y120.477 E1.40713
G1 X139.963 Y120.477 E.01676
G1 X108.266 Y88.78 E1.40713
G1 X107.733 Y88.78 E.01673
G1 X139.429 Y120.477 E1.40711
G1 X138.896 Y120.477 E.01673
G1 X107.199 Y88.78 E1.40713
G1 X106.665 Y88.78 E.01676
M73 P11 R29
M73 Q11 S30
G1 X138.362 Y120.477 E1.40713
G1 X137.828 Y120.477 E.01676
G1 X106.131 Y88.78 E1.40713
G1 X105.597 Y88.78 E.01676
G1 X137.294 Y120.477 E1.40713
G1 X136.76 Y120.477 E.01676
M73 Q11 S29
G1 X105.063 Y88.78 E1.40713
G1 X104.529 Y88.78 E.01676
G1 X136.226 Y120.477 E1.40713
G1 X135.692 Y120.477 E.01676
G1 X103.995 Y88.78 E1.40713
G1 X103.461 Y88.78 E.01676
G1 X135.158 Y120.477 E1.40713
G1 X134.624 Y120.477 E.01676
G1 X102.927 Y88.779 E1.40715
G1 X102.393 Y88.779 E.01676
M73 P12 R29
G1 X134.09 Y120.477 E1.40715
G1 X133.557 Y120.477 E.01673
M73 Q12 S29
G1 X101.859 Y88.779 E1.40717
G1 X101.325 Y88.779 E.01676
G1 X133.023 Y120.477 E1.40717
G1 X132.489 Y120.477 E.01676
G1 X100.791 Y88.779 E1.40717
G1 X100.257 Y88.779 E.01676
G1 X131.955 Y120.477 E1.40717
G1 X131.421 Y120.477 E.01676
G1 X99.723 Y88.779 E1.40717
G1 X99.189 Y88.779 E.01676
G1 X130.887 Y120.477 E1.40717
G1 X130.353 Y120.477 E.01676
G1 X98.655 Y88.779 E1.40717
G1 X98.121 Y88.779 E.01676
G1 X129.819 Y120.477 E1.40717
G1 X129.285 Y120.477 E.01676
M73 P13 R29
G1 X97.587 Y88.779 E1.40717
G1 X97.053 Y88.779 E.01676
M73 Q13 S29
G1 X128.752 Y120.477 E1.4072
G1 X128.218 Y120.477 E.01676
G1 X96.519 Y88.779 E1.4072
G1 X95.985 Y88.778 E.01676
M73 P13 R28
G1 X127.684 Y120.477 E1.40722
G1 X127.15 Y120.477 E.01676
G1 X95.451 Y88.778 E1.40722
G1 X94.917 Y88.778 E.01676
G1 X126.616 Y120.477 E1.40722
G1 X126.082 Y120.477 E.01676
G1 X94.383 Y88.778 E1.40722
G1 X93.849 Y88.778 E.01676
G1 X125.548 Y120.477 E1.40722
G1 X125.014 Y120.477 E.01676
G1 X93.315 Y88.778 E1.40722
G1 X92.781 Y88.778 E.01676
M73 P14 R28
G1 X124.48 Y120.477 E1.40722
G1 X123.947 Y120.477 E.01673
M73 Q14 S29
G1 X92.247 Y88.778 E1.40724
G1 X91.713 Y88.778 E.01676
G1 X123.413 Y120.477 E1.40724
G1 X122.879 Y120.477 E.01676
M73 Q14 S28
G1 X91.179 Y88.778 E1.40724
G1 X90.645 Y88.778 E.01676
G1 X122.345 Y120.477 E1.40724
G1 X121.811 Y120.477 E.01676
G1 X90.112 Y88.778 E1.40722
G1 X89.578 Y88.778 E.01676
G1 X121.277 Y120.477 E1.40722
G1 X120.743 Y120.477 E.01676
G1 X89.044 Y88.777 E1.40724
G1 X88.51 Y88.777 E.01676
G1 X120.209 Y120.477 E1.40724
G1 X119.675 Y120.477 E.01676
M73 P15 R28
G1 X87.976 Y88.777 E1.40724
G1 X87.442 Y88.777 E.01676
M73 Q15 S28
G1 X119.142 Y120.477 E1.40726
G1 X118.608 Y120.477 E.01676
G1 X86.908 Y88.777 E1.40726
G1 X86.374 Y88.777 E.01676
G1 X118.074 Y120.477 E1.40726
G1 X117.54 Y120.477 E.01676
G1 X85.84 Y88.777 E1.40726
G1 X85.777 Y88.777 E.00198
G1 X85.777 Y89.248 E.01479
G1 X117.006 Y120.477 E1.38635
G1 X116.472 Y120.477 E.01676
G1 X85.777 Y89.782 E1.36265
G1 X85.777 Y90.315 E.01673
G1 X115.938 Y120.477 E1.33896
G1 X115.404 Y120.477 E.01676
G1 X85.776 Y90.849 E1.31528
G1 X85.776 Y91.383 E.01676
M73 P16 R28
G1 X114.87 Y120.477 E1.29157
G1 X114.337 Y120.477 E.01673
M73 Q16 S28
G1 X85.776 Y91.917 E1.26789
G1 X85.776 Y92.451 E.01676
M73 P16 R27
G1 X113.803 Y120.477 E1.24418
G1 X113.269 Y120.477 E.01676
G1 X85.776 Y92.984 E1.2205
G1 X85.776 Y93.518 E.01676
G1 X112.735 Y120.477 E1.19679
G1 X112.201 Y120.477 E.01676
G1 X85.776 Y94.052 E1.17309
G1 X85.776 Y94.586 E.01676
G1 X111.667 Y120.477 E1.14938
G1 X111.133 Y120.477 E.01676
G1 X85.776 Y95.12 E1.12568
G1 X85.776 Y95.654 E.01676
G1 X110.599 Y120.477 E1.10197
G1 X110.065 Y120.477 E.01676
G1 X85.776 Y96.187 E1.07829
G1 X85.776 Y96.721 E.01676
M73 P17 R27
G1 X109.532 Y120.477 E1.0546
G1 X108.998 Y120.477 E.01676
G1 X85.776 Y97.255 E1.0309
G1 X85.775 Y97.789 E.01676
M73 Q17 S28
G1 X108.464 Y120.477 E1.00721
G1 X107.93 Y120.477 E.01676
G1 X85.775 Y98.323 E.98351
G1 X85.775 Y98.856 E.01673
M73 Q17 S27
G1 X107.396 Y120.477 E.95982
G1 X106.862 Y120.477 E.01676
G1 X85.775 Y99.39 E.93612
G1 X85.775 Y99.924 E.01676
G1 X106.328 Y120.477 E.91241
G1 X105.794 Y120.477 E.01676
G1 X85.775 Y100.458 E.88871
G1 X85.775 Y100.992 E.01676
G1 X105.26 Y120.477 E.865
G1 X104.727 Y120.477 E.01673
G1 X85.775 Y101.525 E.84134
G1 X85.775 Y102.059 E.01676
G1 X104.193 Y120.477 E.81763
G1 X103.659 Y120.477 E.01676
G1 X85.775 Y102.593 E.79393
G1 X85.775 Y103.127 E.01676
G1 X103.125 Y120.477 E.77022
G1 X102.591 Y120.477 E.01676
M73 P18 R27
G1 X85.775 Y103.661 E.74651
G1 X85.775 Y104.195 E.01676
G1 X102.057 Y120.477 E.72281
G1 X101.523 Y120.477 E.01676
G1 X85.774 Y104.728 E.69915
G1 X85.774 Y105.262 E.01676
M73 Q18 S27
G1 X100.989 Y120.477 E.67544
G1 X100.455 Y120.477 E.01676
G1 X85.774 Y105.796 E.65174
G1 X85.774 Y106.33 E.01676
G1 X99.922 Y120.477 E.62805
G1 X99.388 Y120.477 E.01676
G1 X85.774 Y106.864 E.60435
G1 X85.774 Y107.397 E.01673
G1 X98.854 Y120.477 E.58066
G1 X98.32 Y120.477 E.01676
G1 X85.774 Y107.931 E.55696
G1 X85.774 Y108.465 E.01676
G1 X97.786 Y120.477 E.53325
G1 X97.252 Y120.477 E.01676
G1 X85.774 Y108.999 E.50954
G1 X85.774 Y109.533 E.01676
