; generated by PrusaSlicer 2.6.0+MacOS-arm64 on 2024-02-18 at 07:54:03 UTC


;
;
; 

; external perimeters extrusion width = 0.60mm
; perimeters extrusion width = 0.50mm
; infill extrusion width = 0.50mm
; solid infill extrusion width = 0.50mm
; top infill extrusion width = 0.45mm
; first layer extrusion width = 0.42mm

M73 P0 R14
M73 Q0 S14
M201 X1000 Y1000 Z200 E5000 ; sets maximum accelerations, mm/sec^2
M203 X200 Y200 Z12 E120 ; sets maximum feedrates, mm / sec
M204 S1250 T1250 ; sets acceleration (S) and retract acceleration (R), mm/sec^2
M205 X8.00 Y8.00 Z0.40 E4.50 ; sets the jerk limits, mm/sec
M205 S0 T0 ; sets the minimum extruding and travel feed rate, mm/sec
;TYPE:Custom
M862.3 P "MK3" ; printer model check
M862.1 P0.4 ; nozzle diameter check
M115 U3.12.2 ; tell printer latest fw version
G90 ; use absolute coordinates
M83 ; extruder relative mode
M104 S215 ; set extruder temp
M140 S60 ; set bed temp
M190 S60 ; wait for bed temp
M109 S215 ; wait for extruder temp
G28 W ; home all without mesh bed level
G80 ; mesh bed leveling

G1 Z0.2 F720
G1 Y-3 F1000 ; go outside print area
G92 E0
G1 X60 E9 F1000 ; intro line
G1 X100 E12.5 F1000 ; intro line

G92 E0
M221 S95

; Don't change E values below. Excessive value can damage the printer.

M907 E538 ; set extruder motor current
G21 ; set units to millimeters
G90 ; use absolute coordinates
M83 ; use relative distances for extrusion
M900 K0.05 ; Filament gcode LA 1.5
M900 K30 ; Filament gcode LA 1.0
M107
;LAYER_CHANGE
;Z:0.2
;HEIGHT:0.2
;BEFORE_LAYER_CHANGE
G92 E0.0
;0.2


G1 E-.8 F2100
G1 Z.4 F720
;AFTER_LAYER_CHANGE
;0.2
G1 X112.639 Y87.834 F10800
G1 Z.2 F720
G1 E.8 F2100
M204 S800
;TYPE:Skirt/Brim
;WIDTH:0.42
G1 F1200
G1 X113.705 Y86.82 E.04613
G1 X115 Y86.497 E.04185
G1 X135 Y86.497 E.62709
G1 X136.417 Y86.89 E.04611
G1 X137.431 Y87.956 E.04613
G1 X137.754 Y89.251 E.04185
M73 Q1 S14
G1 X137.754 Y92.351 E.0972
G1 X137.692 Y92.933 E.01835
G1 X132.345 Y117.668 E.79346
M73 P1 R14
G1 X132.055 Y118.624 E.03132
G1 X131.36 Y120.013 E.0487
G1 X130.476 Y121.148 E.04511
G1 X129.298 Y122.16 E.04869
G1 X128.043 Y122.863 E.0451
G1 X126.565 Y123.34 E.0487
G1 X125.136 Y123.503 E.0451
G1 X123.588 Y123.371 E.04871
G1 X122.207 Y122.968 E.04511
G1 X120.702 Y122.16 E.05356
G1 X119.418 Y121.033 E.05357
G1 X118.42 Y119.646 E.05358
G1 X117.76 Y118.07 E.05357
G1 X112.308 Y92.933 E.80648
G1 X112.246 Y92.351 E.01835
G1 X112.246 Y89.251 E.0972
G1 X112.623 Y87.891 E.04425
M204 S1000
G1 X112.997 Y88.003 F10800
M204 S800
G1 F1200
G1 X113.015 Y87.944 E.00193
G1 X114.06 Y87.068 E.04275
G1 X115 Y86.874 E.03009
G1 X135 Y86.874 E.62709
G1 X136.307 Y87.265 E.04277
G1 X137.183 Y88.311 E.04278
G1 X137.377 Y89.251 E.03009
G1 X137.323 Y92.853 E.11295
G1 X131.976 Y117.589 E.79349
G1 X131.705 Y118.485 E.02935
G1 X131.039 Y119.817 E.04669
G1 X130.207 Y120.883 E.0424
G1 X129.077 Y121.854 E.04671
G1 X127.897 Y122.515 E.04241
G1 X126.48 Y122.973 E.04669
G1 X125.136 Y123.126 E.04241
G1 X123.652 Y122.999 E.0467
G1 X122.353 Y122.621 E.04242
G1 X120.923 Y121.854 E.05088
G1 X119.687 Y120.768 E.05159
G1 X119.035 Y119.93 E.03329
G1 X118.624 Y119.228 E.02551
G1 X118.053 Y117.709 E.05088
G1 X112.677 Y92.853 E.79736
G1 X112.623 Y89.251 E.11295
M73 P2 R14
M73 Q2 S14
G1 X112.979 Y88.061 E.03895
M204 S1000
; printing object Bumper-clip01 id:0 copy 0
;WIPE_START
G1 F8640
G1 X113.015 Y87.944 E-.02827
G1 X114.06 Y87.068 E-.31486
G1 X115 Y86.874 E-.22162
G1 X116.019 Y86.874 E-.23525
;WIPE_END
G1 Z.6 F720
G1 X115.787 Y90.038 F10800
G1 Z.2 F720
G1 E.8 F2100
M204 S800
;TYPE:Perimeter
;WIDTH:0.419999
G1 F1200
G1 X134.213 Y90.038 E.57773
G1 X134.213 Y91.565 E.04788
G1 X131.183 Y91.577 E.095
G1 X130.609 Y91.66 E.01818
G1 X129.814 Y91.911 E.02614
G1 X129.309 Y92.169 E.01778
G1 X128.637 Y92.662 E.02613
G1 X128.242 Y93.068 E.01776
G1 X127.77 Y93.74 E.02575
G1 X127.526 Y94.246 E.01761
G1 X127.344 Y94.808 E.01852
G1 X127.221 Y95.606 E.02532
G1 X127.213 Y98.246 E.08278
G1 X127.144 Y98.818 E.01806
G1 X127.014 Y99.066 E.00878
G1 X126.758 Y99.442 E.01426
G1 X126.454 Y99.953 E.01864
G1 X126.306 Y100.374 E.01399
G1 X126.22 Y100.905 E.01687
G1 X126.213 Y115.549 E.45915
G1 X126.296 Y115.844 E.00961
G1 X126.42 Y115.987 E.00593
G1 X126.651 Y116.1 E.00806
G1 X127.198 Y116.165 E.01727
G1 X127.422 Y116.144 E.00705
G1 X127.657 Y116.005 E.00856
G1 X127.813 Y115.722 E.01013
G1 X128.294 Y113.5 E.07128
G1 X128.759 Y111.07 E.07757
G1 X129.164 Y108.626 E.07767
G1 X129.345 Y107.395 E.03901
G1 X129.66 Y104.938 E.07767
G1 X129.915 Y102.471 E.07776
G1 X130.11 Y99.998 E.07778
G1 X130.173 Y98.937 E.03333
G1 X130.479 Y99.138 E.01148
G1 X131.109 Y99.138 E.01975
G1 X128.939 Y116.637 E.55287
G1 X128.839 Y117.072 E.01399
G1 X128.672 Y117.547 E.01579
G1 X128.432 Y118.01 E.01635
G1 X127.987 Y118.616 E.02357
G1 X127.605 Y118.998 E.01694
G1 X127.159 Y119.325 E.01734
G1 X126.544 Y119.647 E.02177
G1 X126.018 Y119.831 E.01747
G1 X125.332 Y119.949 E.02182
G1 X124.761 Y119.951 E.0179
G1 X124.104 Y119.856 E.02081
G1 X123.558 Y119.694 E.01786
G1 X123.054 Y119.452 E.01753
G1 X122.469 Y119.054 E.02218
G1 X122.074 Y118.688 E.01688
G1 X121.646 Y118.14 E.0218
G1 X121.399 Y117.695 E.01596
G1 X121.127 Y116.946 E.02498
G1 X121.029 Y116.436 E.01628
G1 X118.89 Y99.138 E.5465
G1 X119.521 Y99.138 E.01978
M73 P2 R13
G1 X119.827 Y98.937 E.01148
G1 X119.89 Y99.998 E.03333
G1 X120.084 Y102.467 E.07765
G1 X120.205 Y103.705 E.039
G1 X120.49 Y106.17 E.0778
G1 X120.834 Y108.612 E.07732
G1 X121.031 Y109.851 E.03934
G1 X121.467 Y112.29 E.07769
G1 X121.708 Y113.51 E.03899
G1 X122.187 Y115.722 E.07096
G1 X122.279 Y115.93 E.00713
G1 X122.52 Y116.123 E.00968
G1 X122.727 Y116.168 E.00664
G1 X123.284 Y116.111 E.01756
G1 X123.499 Y116.042 E.00708
G1 X123.704 Y115.844 E.00894
G1 X123.787 Y115.549 E.00961
G1 X123.78 Y100.905 E.45915
G1 X123.716 Y100.462 E.01403
M73 Q3 S13
G1 X123.582 Y100.036 E.014
G1 X123.34 Y99.57 E.01646
G1 X122.934 Y99.002 E.02189
G1 X122.863 Y98.789 E.00704
G1 X122.787 Y98.409 E.01215
G1 X122.779 Y95.606 E.08789
G1 X122.624 Y94.689 E.02916
M73 P3 R13
G1 X122.328 Y93.922 E.02578
G1 X122.032 Y93.424 E.01816
G1 X121.504 Y92.794 E.02577
G1 X121.08 Y92.428 E.01756
G1 X120.611 Y92.121 E.01758
G1 X120.105 Y91.877 E.01761
G1 X119.543 Y91.695 E.01852
G1 X118.744 Y91.572 E.02535
G1 X115.787 Y91.565 E.09271
G1 X115.787 Y90.098 E.046
M204 S1000
;WIPE_START
G1 F8640
G1 X119.252 Y90.087 E-.8
;WIPE_END
G1 Z.6 F720
G1 X119.735 Y98.572 F10800
G1 Z.2 F720
G1 E.8 F2100
M204 S800
;TYPE:External perimeter
;WIDTH:0.46918
G1 F1200
G1 X119.717 Y96.863 E.06058
;WIDTH:0.433371
G1 X119.717 Y96.668 E.00633
G1 X120.099 Y96.668 E.0124
G1 X120.107 Y96.855 E.00608
;WIDTH:0.46918
G1 X120.174 Y98.734 E.06664
;WIDTH:0.45645
G1 X120.234 Y99.432 E.02409
;WIDTH:0.419999
G1 X120.46 Y102.431 E.0943
G1 X120.579 Y103.662 E.03878
G1 X120.863 Y106.114 E.07739
G1 X121.207 Y108.56 E.07745
G1 X121.402 Y109.781 E.03877
G1 X121.837 Y112.216 E.07756
G1 X122.076 Y113.427 E.0387
G1 X122.559 Y115.657 E.07154
G1 X122.666 Y115.776 E.00502
G1 X123.005 Y115.763 E.01064
G1 X123.338 Y115.697 E.01064
G1 X123.41 Y115.549 E.00516
G1 X123.403 Y100.905 E.45915
G1 X123.344 Y100.523 E.01212
G1 X123.224 Y100.155 E.01214
G1 X123.033 Y99.789 E.01294
G1 X122.594 Y99.175 E.02367
G1 X122.431 Y98.684 E.01622
G1 X122.41 Y98.425 E.00815
G1 X122.402 Y95.607 E.08836
G1 X122.271 Y94.822 E.02495
G1 X122.001 Y94.111 E.02385
G1 X121.74 Y93.664 E.01623
G1 X121.256 Y93.077 E.02385
G1 X120.87 Y92.742 E.01603
G1 X120.444 Y92.459 E.01604
G1 X119.984 Y92.234 E.01606
G1 X119.482 Y92.067 E.01659
G1 X118.743 Y91.949 E.02346
G1 X115.41 Y91.941 E.1045
G1 X115.41 Y89.661 E.07149
G1 X134.59 Y89.661 E.60137
G1 X134.59 Y90.802 E.03578
G1 X134.59 Y91.941 E.03571
G1 X131.232 Y91.95 E.10529
G1 X130.719 Y92.021 E.01624
G1 X129.981 Y92.249 E.02422
G1 X129.529 Y92.475 E.01584
G1 X128.904 Y92.928 E.0242
G1 X128.549 Y93.287 E.01583
G1 X128.108 Y93.907 E.02386
G1 X127.883 Y94.367 E.01606
G1 X127.716 Y94.869 E.01659
G1 X127.598 Y95.607 E.02343
G1 X127.59 Y98.417 E.08811
G1 X127.506 Y98.938 E.01655
G1 X127.348 Y99.241 E.01071
G1 X127.057 Y99.671 E.01628
G1 X126.788 Y100.127 E.0166
G1 X126.664 Y100.493 E.01212
G1 X126.597 Y100.905 E.01309
G1 X126.59 Y115.549 E.45915
G1 X126.618 Y115.647 E.0032
G1 X126.736 Y115.733 E.00458
G1 X127.24 Y115.79 E.0159
G1 X127.353 Y115.766 E.00362
G1 X127.445 Y115.642 E.00484
G1 X127.923 Y113.43 E.07096
G1 X128.163 Y112.217 E.03877
G1 X128.388 Y110.998 E.03887
G1 X128.793 Y108.561 E.07746
G1 X128.973 Y107.337 E.03879
G1 X129.286 Y104.89 E.07735
G1 X129.541 Y102.427 E.07764
G1 X129.766 Y99.432 E.09417
;WIDTH:0.46918
G1 X129.839 Y98.564 E.03087
G1 X129.893 Y96.855 E.0606
;WIDTH:0.433372
G1 X129.901 Y96.668 E.00608
G1 X130.283 Y96.668 E.0124
G1 X130.283 Y96.863 E.00633
;WIDTH:0.46918
G1 X130.265 Y98.572 E.06058
G1 X130.287 Y98.651 E.00291
;WIDTH:0.457516
G1 X130.479 Y98.761 E.00763
;WIDTH:0.419999
G1 X131.536 Y98.761 E.03314
G1 X129.29 Y116.81 E.57028
G1 X129.164 Y117.297 E.01577
M73 Q4 S13
G1 X128.983 Y117.768 E.01582
G1 X128.748 Y118.216 E.01586
G1 X128.462 Y118.633 E.01585
G1 X128.131 Y119.014 E.01582
M73 P4 R13
G1 X127.76 Y119.354 E.01578
G1 X127.353 Y119.648 E.01574
G1 X126.7 Y119.991 E.02313
G1 X126.108 Y120.198 E.01966
G1 X125.55 Y120.294 E.01775
G1 X125.023 Y120.335 E.01657
G1 X124.524 Y120.309 E.01567
G1 X124.03 Y120.226 E.01571
G1 X123.548 Y120.087 E.01573
G1 X123.085 Y119.893 E.01574
G1 X122.647 Y119.648 E.01574
G1 X122.24 Y119.354 E.01574
G1 X121.793 Y118.941 E.01908
G1 X121.404 Y118.442 E.01984
G1 X121.128 Y117.995 E.01647
G1 X120.92 Y117.535 E.01583
G1 X120.746 Y116.99 E.01794
G1 X120.656 Y116.493 E.01584
G1 X118.464 Y98.761 E.56021
G1 X119.521 Y98.761 E.03314
;WIDTH:0.45645
G1 X119.712 Y98.654 E.00753
;WIDTH:0.46918
G1 X119.718 Y98.63 E.00088
M204 S1000
;WIPE_START
G1 F8640
G1 X119.717 Y96.863 E-.40801
G1 X119.717 Y96.668 E-.04503
G1 X120.099 Y96.668 E-.0882
G1 X120.107 Y96.855 E-.04322
G1 X120.14 Y97.788 E-.21554
;WIPE_END
G1 Z.6 F720
G1 X133.328 Y90.151 F10800
G1 Z.2 F720
G1 E.8 F2100
M204 S800
;TYPE:Solid infill
;WIDTH:0.424451
G1 F1200
G1 X133.93 Y90.753 E.02701
G1 X133.93 Y91.283 E.01681
G1 X132.958 Y90.321 E.04339
G1 X132.419 Y90.321 E.0171
G1 X133.382 Y91.284 E.04321
G1 X132.844 Y91.285 E.01707
G1 X131.879 Y90.321 E.04327
G1 X131.34 Y90.321 E.0171
G1 X132.305 Y91.287 E.04332
G1 X131.767 Y91.288 E.01707
G1 X130.8 Y90.321 E.04338
G1 X130.26 Y90.321 E.01713
G1 X131.231 Y91.291 E.04354
G1 X130.749 Y91.349 E.0154
G1 X129.721 Y90.321 E.04612
G1 X129.181 Y90.321 E.01713
G1 X130.32 Y91.459 E.05108
G1 X129.902 Y91.581 E.01381
G1 X128.642 Y90.321 E.05653
G1 X128.102 Y90.321 E.01713
G1 X129.529 Y91.747 E.064
G1 X129.168 Y91.926 E.01278
G1 X127.563 Y90.321 E.07201
G1 X127.023 Y90.321 E.01713
G1 X128.852 Y92.149 E.08204
G1 X128.538 Y92.375 E.01227
G1 X126.483 Y90.321 E.09218
G1 X125.944 Y90.321 E.0171
G1 X128.268 Y92.645 E.10427
G1 X128.002 Y92.918 E.01209
G1 X125.404 Y90.321 E.11654
G1 X124.865 Y90.321 E.0171
G1 X127.78 Y93.236 E.13078
G1 X127.558 Y93.553 E.01228
G1 X124.325 Y90.321 E.14503
G1 X123.786 Y90.321 E.0171
G1 X127.372 Y93.907 E.16089
G1 X127.289 Y94.075 E.00594
G1 X127.216 Y94.291 E.00723
G1 X123.246 Y90.321 E.17811
G1 X122.706 Y90.321 E.01713
G1 X127.079 Y94.694 E.1962
G1 X127.003 Y95.157 E.01488
G1 X122.167 Y90.321 E.21697
G1 X121.627 Y90.321 E.01713
G1 X126.94 Y95.634 E.23837
G1 X126.938 Y96.171 E.01704
G1 X121.088 Y90.321 E.26246
G1 X120.548 Y90.321 E.01713
G1 X126.936 Y96.709 E.2866
G1 X126.934 Y97.247 E.01707
G1 X120.009 Y90.321 E.31071
G1 X119.469 Y90.321 E.01713
G1 X126.932 Y97.784 E.33483
G1 X126.93 Y98.322 E.01707
M73 Q5 S13
G1 X122.688 Y94.079 E.19034
G1 X122.576 Y93.786 E.00995
M73 P5 R13
G1 X122.255 Y93.25 E.01982
G1 X121.783 Y92.676 E.02358
G1 X121.321 Y92.257 E.01979
G1 X120.741 Y91.869 E.02214
G1 X120.236 Y91.628 E.01775
G1 X118.929 Y90.321 E.05864
G1 X118.39 Y90.321 E.0171
G1 X119.467 Y91.398 E.04832
G1 X118.83 Y91.301 E.02044
G1 X117.85 Y90.321 E.04397
G1 X117.311 Y90.321 E.0171
G1 X118.278 Y91.288 E.04338
G1 X117.737 Y91.287 E.01716
G1 X116.771 Y90.321 E.04334
G1 X116.232 Y90.321 E.0171
G1 X117.196 Y91.285 E.04325
G1 X116.656 Y91.284 E.01713
G1 X116.07 Y90.699 E.02627
G1 X116.07 Y91.238 E.0171
G1 X116.285 Y91.453 E.00965
M204 S1000
;WIPE_START
G1 F8640
G1 X116.07 Y91.238 E-.07021
G1 X116.07 Y90.699 E-.12446
G1 X116.656 Y91.284 E-.19119
G1 X117.196 Y91.285 E-.12469
G1 X116.31 Y90.399 E-.28945
;WIPE_END
G1 Z.6 F720
G1 X122.728 Y94.659 F10800
G1 Z.2 F720
G1 E.8 F2100
M204 S800
G1 F1200
G1 X126.846 Y98.777 E.18475
G1 X126.649 Y99.12 E.01255
G1 X123.05 Y95.52 E.16149
G1 X123.065 Y96.076 E.01765
G1 X126.417 Y99.427 E.15037
G1 X126.227 Y99.777 E.01263
G1 X123.069 Y96.619 E.14168
G1 X123.073 Y97.162 E.01723
G1 X126.079 Y100.168 E.13486
G1 X126.035 Y100.291 E.00414
G1 X125.983 Y100.612 E.01032
G1 X123.077 Y97.706 E.13038
G1 X123.081 Y98.249 E.01723
G1 X125.937 Y101.105 E.12813
G1 X125.937 Y101.645 E.01713
G1 X123.249 Y98.957 E.1206
G1 X123.601 Y99.452 E.01927
G1 X123.8 Y99.827 E.01347
G1 X123.921 Y100.169 E.01151
G1 X125.936 Y102.184 E.0904
G1 X125.936 Y102.723 E.0171
G1 X124.053 Y100.84 E.08448
G1 X124.054 Y101.38 E.01713
G1 X125.936 Y103.263 E.08446
G1 X125.936 Y103.802 E.0171
G1 X124.054 Y101.92 E.08444
G1 X124.055 Y102.461 E.01716
G1 X125.935 Y104.341 E.08435
G1 X125.935 Y104.88 E.0171
G1 X124.055 Y103.001 E.08432
G1 X124.056 Y103.541 E.01713
G1 X125.935 Y105.42 E.0843
G1 X125.935 Y105.959 E.0171
G1 X124.056 Y104.081 E.08428
G1 X124.057 Y104.621 E.01713
G1 X125.934 Y106.498 E.08421
G1 X125.934 Y107.038 E.01713
G1 X124.057 Y105.161 E.08421
G1 X124.058 Y105.701 E.01713
G1 X125.934 Y107.577 E.08417
G1 X125.934 Y108.116 E.0171
G1 X124.058 Y106.241 E.08414
G1 X124.059 Y106.781 E.01713
G1 X125.933 Y108.656 E.0841
G1 X125.933 Y109.195 E.0171
G1 X124.059 Y107.321 E.08408
G1 X124.06 Y107.861 E.01713
G1 X125.933 Y109.734 E.08403
G1 X125.933 Y110.274 E.01713
G1 X124.06 Y108.401 E.08403
G1 X124.061 Y108.941 E.01713
G1 X125.932 Y110.813 E.08397
G1 X125.932 Y111.352 E.0171
G1 X124.061 Y109.481 E.08394
G1 X124.062 Y110.021 E.01713
G1 X125.932 Y111.891 E.0839
G1 X125.932 Y112.431 E.01713
G1 X124.062 Y110.562 E.08388
G1 X124.063 Y111.102 E.01713
G1 X125.931 Y112.97 E.08381
G1 X125.931 Y113.509 E.0171
G1 X124.063 Y111.642 E.08379
G1 X124.064 Y112.182 E.01713
G1 X125.931 Y114.049 E.08376
G1 X125.931 Y114.588 E.0171
G1 X124.064 Y112.722 E.08374
G1 X124.065 Y113.262 E.01713
G1 X126.1 Y115.297 E.0913
M204 S1000
;WIPE_START
G1 F8640
G1 X124.065 Y113.262 E-.66452
G1 X124.064 Y112.722 E-.12469
G1 X124.097 Y112.755 E-.01079
;WIPE_END
G1 Z.6 F720
G1 X130.935 Y99.628 F10800
G1 Z.2 F720
M73 Q6 S13
G1 E.8 F2100
M204 S800
M73 P6 R13
G1 F1200
G1 X130.727 Y99.421 E.00931
G1 X130.45 Y99.421 E.00879
G1 X130.426 Y99.405 E.00092
G1 X130.409 Y99.642 E.00754
G1 X130.723 Y99.956 E.01409
G1 X130.663 Y100.436 E.01535
G1 X130.371 Y100.144 E.0131
G1 X130.334 Y100.646 E.01597
G1 X130.604 Y100.916 E.01211
G1 X130.544 Y101.396 E.01535
G1 X130.297 Y101.149 E.01108
G1 X130.26 Y101.651 E.01597
G1 X130.485 Y101.876 E.01009
G1 X130.425 Y102.356 E.01535
G1 X130.222 Y102.153 E.00911
G1 X130.181 Y102.651 E.01585
G1 X130.366 Y102.836 E.0083
G1 X130.306 Y103.316 E.01535
G1 X130.13 Y103.141 E.00787
G1 X130.08 Y103.63 E.01559
G1 X130.247 Y103.796 E.00747
G1 X130.187 Y104.276 E.01535
G1 X130.029 Y104.119 E.00707
G1 X129.979 Y104.608 E.01559
G1 X130.128 Y104.756 E.00666
G1 X130.068 Y105.236 E.01535
G1 X129.926 Y105.094 E.00637
G1 X129.864 Y105.572 E.01529
G1 X130.008 Y105.716 E.00646
G1 X129.949 Y106.196 E.01534
G1 X129.803 Y106.05 E.00655
G1 X129.742 Y106.529 E.01532
G1 X129.889 Y106.676 E.0066
G1 X129.83 Y107.156 E.01534
G1 X129.68 Y107.007 E.00671
G1 X129.618 Y107.484 E.01526
G1 X129.77 Y107.636 E.00682
G1 X129.711 Y108.116 E.01534
G1 X129.549 Y107.955 E.00725
G1 X129.48 Y108.425 E.01507
G1 X129.651 Y108.597 E.00769
G1 X129.592 Y109.077 E.01534
G1 X129.407 Y108.892 E.0083
G1 X129.33 Y109.354 E.01486
G1 X129.532 Y109.557 E.00909
G1 X129.473 Y110.037 E.01534
G1 X129.253 Y109.817 E.00987
G1 X129.176 Y110.28 E.01489
G1 X129.413 Y110.517 E.01063
