; generated by PrusaSlicer 2.6.0+MacOS-arm64 on 2024-02-18 at 07:50:22 UTC


;
;
; 

; external perimeters extrusion width = 0.60mm
; perimeters extrusion width = 0.50mm
; infill extrusion width = 0.50mm
; solid infill extrusion width = 0.50mm
; top infill extrusion width = 0.45mm
; first layer extrusion width = 0.42mm

M73 P0 R14
M73 Q0 S14
M201 X1000 Y1000 Z200 E5000 ; sets maximum accelerations, mm/sec^2
M203 X200 Y200 Z12 E120 ; sets maximum feedrates, mm / sec
M204 S1250 T1250 ; sets acceleration (S) and retract acceleration (R), mm/sec^2
M205 X8.00 Y8.00 Z0.40 E4.50 ; sets the jerk limits, mm/sec
M205 S0 T0 ; sets the minimum extruding and travel feed rate, mm/sec
;TYPE:Custom
M862.3 P "MK3" ; printer model check
M862.1 P0.4 ; nozzle diameter check
M115 U3.12.2 ; tell printer latest fw version
G90 ; use absolute coordinates
M83 ; extruder relative mode
M104 S215 ; set extruder temp
M140 S60 ; set bed temp
M190 S60 ; wait for bed temp
M109 S215 ; wait for extruder temp
G28 W ; home all without mesh bed level
G80 ; mesh bed leveling

G1 Z0.2 F720
G1 Y-3 F1000 ; go outside print area
G92 E0
G1 X60 E9 F1000 ; intro line
G1 X100 E12.5 F1000 ; intro line

G92 E0
M221 S95

; Don't change E values below. Excessive value can damage the printer.

M907 E538 ; set extruder motor current
G21 ; set units to millimeters
G90 ; use absolute coordinates
M83 ; use relative distances for extrusion
M900 K0.05 ; Filament gcode LA 1.5
M900 K30 ; Filament gcode LA 1.0
M107
;LAYER_CHANGE
;Z:0.2
;HEIGHT:0.2
;BEFORE_LAYER_CHANGE
G92 E0.0
;0.2


G1 E-.8 F2100
M73 P0 R13
G1 Z.4 F720
;AFTER_LAYER_CHANGE
;0.2
G1 X104.841 Y90.746 F10800
G1 Z.2 F720
G1 E.8 F2100
M204 S800
;TYPE:Skirt/Brim
;WIDTH:0.42
G1 F1200
G1 X105.907 Y89.733 E.04611
G1 X107.202 Y89.41 E.04185
G1 X142.798 Y89.41 E1.11609
G1 X144.215 Y89.802 E.0461
M73 P1 R13
M73 Q1 S14
G1 X145.228 Y90.869 E.04613
G1 X145.552 Y92.161 E.04176
G1 X145.489 Y94.698 E.07957
G1 X138.767 Y116.006 E.70055
G1 X138.357 Y116.833 E.02894
M73 Q1 S13
G1 X137.469 Y117.913 E.04384
G1 X136.525 Y118.455 E.03413
G1 X135.543 Y118.629 E.03127
G1 X114.456 Y118.629 E.66117
G1 X113.65 Y118.512 E.02554
G1 X112.995 Y118.238 E.02226
G1 X112.276 Y117.667 E.02879
G1 X111.543 Y116.678 E.0386
G1 X111.224 Y115.983 E.02398
G1 X104.532 Y94.793 E.69674
G1 X104.448 Y94.065 E.02298
G1 X104.448 Y92.164 E.0596
G1 X104.825 Y90.804 E.04425
M204 S1000
G1 X105.199 Y90.916 F10800
M204 S800
G1 F1200
G1 X105.217 Y90.857 E.00193
G1 X106.263 Y89.98 E.0428
G1 X107.202 Y89.787 E.03006
G1 X142.798 Y89.787 E1.11609
G1 X144.105 Y90.178 E.04277
G1 X144.981 Y91.224 E.04278
G1 X145.175 Y92.162 E.03003
G1 X145.12 Y94.621 E.07712
G1 X138.378 Y115.979 E.70224
G1 X138.049 Y116.616 E.02248
G1 X137.224 Y117.626 E.04089
M73 Q2 S13
G1 X136.403 Y118.098 E.02969
G1 X135.547 Y118.252 E.02727
G1 X114.456 Y118.252 E.66129
G1 X113.758 Y118.151 E.02211
M73 P2 R13
G1 X113.183 Y117.911 E.01954
G1 X112.55 Y117.408 E.02535
G1 X111.867 Y116.484 E.03603
G1 X111.584 Y115.87 E.0212
G1 X104.951 Y94.898 E.68967
G1 X104.832 Y94.243 E.02087
G1 X104.825 Y92.164 E.06519
G1 X105.182 Y90.974 E.03895
M204 S1000
; printing object 1 id:0 copy 0
;WIPE_START
G1 F8640
G1 X105.217 Y90.857 E-.0282
G1 X106.263 Y89.98 E-.31518
G1 X107.202 Y89.787 E-.22135
G1 X108.221 Y89.787 E-.23527
;WIPE_END
G1 Z.6 F720
G1 X109.126 Y92.951 F10800
G1 Z.2 F720
G1 E.8 F2100
M204 S800
;TYPE:Perimeter
;WIDTH:0.419999
G1 F1200
G1 X140.875 Y92.951 E.99547
G1 X140.876 Y93.892 E.0295
G1 X140.877 Y94.4 E.01593
G1 X140.639 Y94.574 E.00924
G1 X137.86 Y96.186 E.10073
G1 X137.365 Y96.581 E.01986
G1 X137.128 Y96.884 E.01206
G1 X136.822 Y97.371 E.01803
G1 X136.622 Y98.028 E.02153
G1 X136.595 Y98.73 E.02203
G1 X136.7 Y99.274 E.01737
G1 X136.961 Y100.059 E.02594
G1 X137.154 Y100.783 E.02349
G1 X137.339 Y101.693 E.02912
G1 X137.438 Y102.443 E.02372
G1 X137.487 Y103.129 E.02156
;WIDTH:0.462734
G1 X137.469 Y103.309 E.00631
;WIDTH:0.505468
G1 X137.45 Y103.489 E.00696
;WIDTH:0.548202
G1 X137.431 Y103.669 E.0076
;WIDTH:0.590936
G1 X137.41 Y104.225 E.02535
;WIDTH:0.560542
G1 X137.408 Y104.602 E.01623
;WIDTH:0.530147
G1 X137.386 Y104.975 E.01514
;WIDTH:0.501233
G1 X137.363 Y105.348 E.01424
;WIDTH:0.472319
G1 X137.318 Y105.708 E.01295
;WIDTH:0.443221
G1 X137.273 Y106.067 E.01204
;WIDTH:0.414123
G1 X137.173 Y106.638 E.01789
;WIDTH:0.412593
G1 X137.134 Y106.698 E.0022
;WIDTH:0.456154
G1 X137.096 Y106.758 E.00244
;WIDTH:0.499714
G1 X137.057 Y106.817 E.00269
;WIDTH:0.543275
G1 X137.018 Y106.877 E.00298
;WIDTH:0.586836
G1 X136.98 Y106.937 E.00321
;WIDTH:0.630396
G1 X136.941 Y106.997 E.0035
G1 X136.926 Y106.93 E.00335
;WIDTH:0.586836
G1 X136.911 Y106.863 E.00311
;WIDTH:0.543275
G1 X136.896 Y106.795 E.0029
;WIDTH:0.499714
G1 X136.881 Y106.728 E.00261
;WIDTH:0.456154
G1 X136.866 Y106.661 E.00236
;WIDTH:0.412593
G1 X136.851 Y106.594 E.00211
;WIDTH:0.39447
G1 X136.881 Y106.281 E.00919
;WIDTH:0.419908
G1 X136.911 Y105.968 E.00986
;WIDTH:0.447701
G1 X136.924 Y105.623 E.01162
;WIDTH:0.475494
G1 X136.937 Y105.279 E.01238
;WIDTH:0.508058
G1 X136.928 Y104.892 E.01497
;WIDTH:0.540621
G1 X136.918 Y104.505 E.01602
;WIDTH:0.565779
G1 X136.893 Y104.188 E.01382
;WIDTH:0.590936
G1 X136.867 Y103.871 E.01449
G1 X136.825 Y103.762 E.00532
;WIDTH:0.548202
G1 X136.784 Y103.653 E.00489
;WIDTH:0.505468
G1 X136.743 Y103.544 E.00448
;WIDTH:0.462734
G1 X136.701 Y103.435 E.00408
;WIDTH:0.419999
G1 X136.473 Y102.441 E.03198
G1 X136.258 Y101.754 E.02257
G1 X135.997 Y101.072 E.0229
G1 X135.705 Y100.426 E.02223
G1 X135.324 Y99.715 E.02529
G1 X134.907 Y99.038 E.02493
G1 X134.369 Y98.296 E.02874
G1 X133.906 Y97.743 E.02261
G1 X133.351 Y97.159 E.02526
G1 X132.838 Y96.684 E.02192
G1 X132.291 Y96.234 E.02221
G1 X131.434 Y95.629 E.03289
G1 X130.522 Y95.1 E.03306
G1 X129.875 Y94.785 E.02256
G1 X129.209 Y94.511 E.02258
G1 X128.528 Y94.277 E.02258
G1 X127.829 Y94.083 E.02275
G1 X126.896 Y93.895 E.02984
G1 X126.061 Y93.79 E.02639
G1 X125.343 Y93.748 E.02255
G1 X124.62 Y93.749 E.02267
G1 X123.755 Y93.808 E.02718
G1 X122.836 Y93.941 E.02911
G1 X122.131 Y94.093 E.02261
G1 X121.369 Y94.309 E.02483
G1 X120.701 Y94.545 E.02221
G1 X119.748 Y94.962 E.03262
G1 X119.121 Y95.294 E.02225
G1 X118.253 Y95.837 E.0321
G1 X117.638 Y96.289 E.02393
G1 X117.086 Y96.75 E.02255
G1 X116.326 Y97.496 E.03339
G1 X115.888 Y97.992 E.02075
G1 X115.473 Y98.501 E.02059
G1 X114.985 Y99.203 E.02681
G1 X114.608 Y99.83 E.02294
G1 X114.01 Y101.062 E.04294
G1 X113.791 Y101.622 E.01885
G1 X113.59 Y102.226 E.01996
G1 X113.408 Y102.901 E.02192
G1 X113.291 Y103.465 E.01806
;WIDTH:0.464234
G1 X113.253 Y103.555 E.00342
;WIDTH:0.508468
G1 X113.216 Y103.644 E.00373
;WIDTH:0.552702
G1 X113.179 Y103.734 E.00412
;WIDTH:0.596936
G1 X113.142 Y103.823 E.00444
G1 X113.091 Y104.362 E.02494
;WIDTH:0.552015
G1 X113.078 Y104.679 E.01343
;WIDTH:0.525433
G1 X113.064 Y104.995 E.01269
;WIDTH:0.49885
G1 X113.079 Y105.487 E.01866
;WIDTH:0.45968
G1 X113.093 Y105.978 E.01702
;WIDTH:0.420509
G1 X113.125 Y106.298 E.0101
;WIDTH:0.395223
G1 X113.157 Y106.617 E.00939
;WIDTH:0.412965
G1 X113.142 Y106.688 E.00223
;WIDTH:0.455993
G1 X113.128 Y106.758 E.00245
;WIDTH:0.499021
G1 X113.113 Y106.829 E.00275
;WIDTH:0.54205
G1 X113.099 Y106.9 E.003
;WIDTH:0.585078
G1 X113.084 Y106.97 E.00323
;WIDTH:0.628106
G1 X113.07 Y107.041 E.00352
G1 X113.031 Y106.98 E.00352
;WIDTH:0.585078
G1 X112.992 Y106.919 E.00326
;WIDTH:0.54205
G1 X112.953 Y106.859 E.00297
;WIDTH:0.499021
G1 X112.914 Y106.798 E.00275
;WIDTH:0.455993
G1 X112.875 Y106.737 E.00249
;WIDTH:0.412965
G1 X112.836 Y106.677 E.0022
;WIDTH:0.38809
G1 X112.779 Y106.369 E.00899
;WIDTH:0.414966
G1 X112.728 Y106.016 E.01103
;WIDTH:0.441842
G1 X112.677 Y105.664 E.0118
;WIDTH:0.47264
G1 X112.642 Y105.3 E.01307
;WIDTH:0.503438
G1 X112.606 Y104.936 E.01401
;WIDTH:0.552015
G1 X112.583 Y104.347 E.02495
;WIDTH:0.596936
G1 X112.591 Y103.79 E.02566
G1 X112.57 Y103.682 E.00507
;WIDTH:0.552911
G1 X112.549 Y103.573 E.00471
;WIDTH:0.508886
G1 X112.528 Y103.464 E.0043
;WIDTH:0.464861
G1 X112.518 Y103.017 E.01569
;WIDTH:0.419999
G1 X112.572 Y102.351 E.02095
G1 X112.721 Y101.346 E.03186
G1 X112.864 Y100.693 E.02096
G1 X113.044 Y100.041 E.02121
G1 X113.349 Y99.084 E.03149
G1 X113.417 Y98.494 E.01862
G1 X113.349 Y97.877 E.01946
G1 X113.207 Y97.43 E.01471
G1 X112.967 Y96.981 E.01596
G1 X112.627 Y96.573 E.01665
G1 X112.07 Y96.138 E.02216
G1 X109.598 Y94.71 E.08951
G1 X109.126 Y94.384 E.01799
G1 X109.126 Y93.011 E.04305
M204 S1000
G1 X108.749 Y92.574 F10800
M204 S800
;TYPE:External perimeter
G1 F1200
G1 X141.251 Y92.574 E1.01908
G1 X141.253 Y93.891 E.04129
M73 P3 R13
M73 Q3 S13
G1 X141.254 Y94.531 E.02007
G1 X141.193 Y94.616 E.00328
G1 X140.845 Y94.891 E.01391
G1 X138.119 Y96.464 E.09868
G1 X137.6 Y96.876 E.02078
G1 X137.18 Y97.49 E.02332
G1 X136.999 Y98.052 E.01851
G1 X136.963 Y98.625 E.018
G1 X137.057 Y99.153 E.01682
G1 X137.317 Y99.932 E.02575
G1 X137.5 Y100.596 E.0216
G1 X137.709 Y101.612 E.03252
G1 X137.812 Y102.391 E.02464
G1 X137.864 Y103.1 E.02229
G1 X137.877 Y103.812 E.02233
G1 X137.85 Y104.522 E.02228
G1 X137.764 Y105.392 E.02741
G1 X137.655 Y106.073 E.02162
G1 X137.509 Y106.747 E.02162
G1 X137.327 Y107.412 E.02162
G1 X137.136 Y107.996 E.01927
G1 X136.922 Y108.549 E.01859
;WIDTH:0.457268
G1 X136.865 Y108.635 E.00355
;WIDTH:0.494536
G1 X136.808 Y108.721 E.00387
;WIDTH:0.531804
G1 X136.751 Y108.808 E.00423
;WIDTH:0.54369
G1 X136.409 Y109.535 E.03345
;WIDTH:0.517484
G1 X136.29 Y109.782 E.01082
;WIDTH:0.491277
G1 X136.026 Y110.318 E.02227
;WIDTH:0.465518
G1 X135.763 Y110.855 E.02101
;WIDTH:0.439759
G1 X135.541 Y111.493 E.02229
;WIDTH:0.427162
G1 X135.363 Y112.372 E.02865
;WIDTH:0.448473
G1 X135.294 Y113.258 E.02997
G1 X135.213 Y113.528 E.00951
;WIDTH:0.447147
G1 X135.043 Y113.696 E.00803
G1 X135 Y113.508 E.00648
G1 X134.896 Y113.375 E.00567
;WIDTH:0.448473
G1 X134.89 Y113.221 E.0052
G1 X135.031 Y111.989 E.04182
;WIDTH:0.441125
G1 X135.247 Y111.107 E.03007
;WIDTH:0.453495
G1 X135.587 Y110.259 E.03119
;WIDTH:0.494322
G1 X135.894 Y109.571 E.02828
;WIDTH:0.531142
G1 X136.046 Y109.143 E.01844
;WIDTH:0.567961
G1 X136.199 Y108.716 E.0198
G1 X136.206 Y108.588 E.0056
;WIDTH:0.518641
G1 X136.213 Y108.46 E.00507
;WIDTH:0.46932
G1 X136.219 Y108.332 E.00454
;WIDTH:0.419999
G1 X136.337 Y107.785 E.01755
G1 X136.429 Y107.227 E.01773
G1 X136.5 Y106.574 E.02059
G1 X136.534 Y105.968 E.01903
G1 X136.533 Y105.303 E.02085
G1 X136.484 Y104.558 E.02341
G1 X136.402 Y103.895 E.02095
G1 X136.28 Y103.23 E.0212
G1 X136.113 Y102.553 E.02186
G1 X135.905 Y101.888 E.02185
G1 X135.653 Y101.227 E.02218
G1 X135.371 Y100.601 E.02153
G1 X135.003 Y99.912 E.02449
G1 X134.601 Y99.259 E.02404
G1 X134.079 Y98.538 E.02791
G1 X133.633 Y98.002 E.02186
G1 X133.095 Y97.435 E.02451
G1 X132.598 Y96.975 E.02123
G1 X132.073 Y96.542 E.02134
G1 X131.244 Y95.955 E.03185
G1 X130.357 Y95.439 E.03217
G1 X129.73 Y95.134 E.02186
G1 X129.086 Y94.867 E.02186
G1 X128.427 Y94.64 E.02185
G1 X127.753 Y94.453 E.02193
G1 X126.849 Y94.269 E.02893
G1 X126.038 Y94.166 E.02563
G1 X125.343 Y94.125 E.02183
G1 X124.645 Y94.125 E.02189
G1 X123.809 Y94.181 E.02627
G1 X122.915 Y94.309 E.02832
G1 X122.233 Y94.456 E.02187
G1 X121.494 Y94.665 E.02408
G1 X120.852 Y94.891 E.02134
G1 X119.924 Y95.296 E.03175
G1 X119.321 Y95.614 E.02137
G1 X118.453 Y96.157 E.0321
G1 X117.88 Y96.579 E.02231
G1 X117.345 Y97.025 E.02184
G1 X116.601 Y97.754 E.03266
G1 X115.783 Y98.717 E.03962
G1 X115.308 Y99.398 E.02603
G1 X114.946 Y99.998 E.02197
G1 X114.36 Y101.203 E.04201
G1 X114.149 Y101.741 E.01812
G1 X113.871 Y102.629 E.02918
G1 X113.73 Y103.204 E.01856
G1 X113.602 Y103.891 E.02191
G1 X113.533 Y104.401 E.01614
G1 X113.481 Y105.007 E.01907
G1 X113.471 Y105.967 E.0301
G1 X113.507 Y106.582 E.01932
G1 X113.582 Y107.319 E.02323
G1 X113.782 Y108.337 E.03253
;WIDTH:0.469106
G1 X113.789 Y108.467 E.00461
;WIDTH:0.518212
G1 X113.796 Y108.596 E.00511
;WIDTH:0.567318
G1 X113.803 Y108.725 E.00563
G1 X113.991 Y109.275 E.02534
;WIDTH:0.520341
G1 X114.202 Y109.776 E.02158
;WIDTH:0.484397
G1 X114.414 Y110.278 E.02
;WIDTH:0.448453
G1 X114.687 Y110.92 E.02352
;WIDTH:0.442548
G1 X114.844 Y111.412 E.01716
;WIDTH:0.43318
G1 X115.02 Y112.362 E.03135
;WIDTH:0.437235
G1 X115.101 Y113.379 E.03345
G1 X115.047 Y113.433 E.0025
G1 X114.964 Y113.681 E.00857
G1 X114.718 Y113.426 E.01162
;WIDTH:0.440753
G1 X114.584 Y112.078 E.04481
;WIDTH:0.437805
G1 X114.453 Y111.456 E.02087
;WIDTH:0.437148
G1 X114.228 Y110.836 E.02162
;WIDTH:0.470567
G1 X113.847 Y110.056 E.03087
;WIDTH:0.496704
G1 X113.696 Y109.751 E.01284
;WIDTH:0.52284
G1 X113.544 Y109.445 E.01363
;WIDTH:0.567318
G1 X113.313 Y108.909 E.02545
G1 X113.236 Y108.791 E.00614
;WIDTH:0.518212
G1 X113.158 Y108.673 E.00559
;WIDTH:0.469106
G1 X113.081 Y108.556 E.00496
;WIDTH:0.419999
G1 X112.892 Y108.073 E.01626
G1 X112.675 Y107.42 E.02158
G1 X112.493 Y106.756 E.02159
G1 X112.347 Y106.085 E.02153
G1 X112.196 Y105.062 E.03242
G1 X112.141 Y104.377 E.02155
G1 X112.123 Y103.689 E.02158
G1 X112.141 Y102.997 E.0217
G1 X112.197 Y102.308 E.02167
G1 X112.35 Y101.278 E.03265
G1 X112.498 Y100.603 E.02167
G1 X112.682 Y99.933 E.02179
G1 X112.955 Y99.077 E.02817
G1 X113.033 Y98.551 E.01667
G1 X112.99 Y98.039 E.01611
G1 X112.876 Y97.615 E.01377
G1 X112.67 Y97.217 E.01405
G1 X112.393 Y96.868 E.01397
G1 X111.881 Y96.464 E.02045
G1 X109.137 Y94.88 E.09934
G1 X108.749 Y94.552 E.01593
G1 X108.749 Y92.634 E.06014
M204 S1000
G1 X109.106 Y92.754 F10800
;WIPE_START
G1 F8640
G1 X112.214 Y92.628 E-.8
;WIPE_END
G1 Z.6 F720
G1 X136.578 Y108.416 F10800
G1 Z.2 F720
G1 E.8 F2100
M204 S800
;TYPE:Perimeter
;WIDTH:0.449399
G1 F1200
G1 X136.662 Y108.136 E.00988
;WIDTH:0.495404
G1 X136.745 Y107.856 E.01099
;WIDTH:0.532802
G1 X136.807 Y107.608 E.01041
;WIDTH:0.5702
G1 X136.869 Y107.36 E.01121
;WIDTH:0.600298
G1 X136.905 Y107.179 E.00855
;WIDTH:0.630396
G1 X136.941 Y106.997 E.00906
M204 S1000
;WIPE_START
G1 F8640
G1 X136.905 Y107.179 E-.04284
G1 X136.869 Y107.36 E-.04261
G1 X136.807 Y107.608 E-.05903
G1 X136.745 Y107.856 E-.05903
G1 X136.662 Y108.136 E-.06743
G1 X136.578 Y108.416 E-.0675
;WIPE_END
G1 E-.46156 F2100
G1 Z.6 F720
G1 X113.424 Y108.421 F10800
G1 Z.2 F720
G1 E.8 F2100
M204 S800
;WIDTH:0.441711
G1 F1200
G1 X113.35 Y108.178 E.00842
;WIDTH:0.481616
G1 X113.275 Y107.934 E.00931
;WIDTH:0.522596
G1 X113.208 Y107.665 E.01106
;WIDTH:0.563576
G1 X113.14 Y107.396 E.01201
;WIDTH:0.595841
G1 X113.105 Y107.218 E.00834
;WIDTH:0.628106
G1 X113.07 Y107.041 E.00878
M204 S1000
;WIPE_START
G1 F8640
G1 X113.105 Y107.218 E-.04166
G1 X113.14 Y107.396 E-.04189
G1 X113.208 Y107.665 E-.06407
G1 X113.275 Y107.934 E-.06401
G1 X113.35 Y108.178 E-.05894
G1 X113.424 Y108.421 E-.05865
;WIPE_END
G1 E-.47078 F2100
G1 Z.6 F720
G1 X139.99 Y93.064 F10800
G1 Z.2 F720
M73 Q4 S13
G1 E.8 F2100
M204 S800
;TYPE:Solid infill
;WIDTH:0.424678
M73 P4 R13
G1 F1200
G1 X140.593 Y93.668 E.02709
G1 X140.594 Y94.208 E.01714
G1 X139.619 Y93.234 E.04375
G1 X139.08 Y93.234 E.01711
G1 X140.294 Y94.448 E.0545
G1 X139.952 Y94.646 E.01254
G1 X138.54 Y93.234 E.06339
G1 X138 Y93.234 E.01714
G1 X139.61 Y94.845 E.0723
G1 X139.269 Y95.043 E.01252
G1 X137.46 Y93.234 E.08121
G1 X136.92 Y93.234 E.01714
G1 X138.927 Y95.241 E.0901
G1 X138.586 Y95.44 E.01253
G1 X136.38 Y93.234 E.09903
G1 X135.84 Y93.234 E.01714
G1 X138.244 Y95.638 E.10792
G1 X137.903 Y95.836 E.01252
G1 X135.3 Y93.234 E.11683
G1 X134.76 Y93.234 E.01714
G1 X137.577 Y96.05 E.12644
G1 X137.276 Y96.29 E.01222
G1 X134.221 Y93.234 E.13717
G1 X133.681 Y93.234 E.01714
G1 X137.007 Y96.56 E.14931
G1 X136.788 Y96.881 E.01234
G1 X133.141 Y93.234 E.16372
G1 X132.601 Y93.234 E.01714
G1 X136.58 Y97.213 E.17862
G1 X136.443 Y97.616 E.01351
G1 X132.061 Y93.234 E.19672
G1 X131.521 Y93.234 E.01714
G1 X136.348 Y98.061 E.21669
G1 X136.307 Y98.56 E.01589
G1 X130.981 Y93.234 E.23909
G1 X130.441 Y93.234 E.01714
G1 X136.394 Y99.187 E.26724
G1 X136.413 Y99.3 E.00364
G1 X136.633 Y99.965 E.02223
G1 X129.901 Y93.234 E.30219
G1 X129.362 Y93.234 E.01711
G1 X131.425 Y95.297 E.09261
G1 X131.58 Y95.387 E.00569
G1 X132.501 Y96.039 E.03582
G1 X133.02 Y96.467 E.02135
G1 X133.546 Y96.954 E.02275
G1 X134.146 Y97.586 E.02766
G1 X134.594 Y98.124 E.02222
